X: 11933
T: Empty Pod, The
R: reel
M: 4/4
K: Edorian
|:B2EB deed|c2 c/c/c deed|B2EB deed|g2fB zgfd|
~B2EB deed|c2 cc deed|B2EB deed|dedB zcB/A/F:|
|:~B2 E ~B2 E ~B2|GBBA B/c/d e z|Bz G B2 e B/c/d|b2 ag aged|
B2 E B2 e ~B2|GBBA B/c/d e2|1 B/c/d f z B/c/dgd|bbb/a/g aged:|2 zdd_B- BdB/A/G|EDEF GAB/c/d||
|:gedB BEG/A/B|A z a/a/a bgeB|gedB BEGA|_b2 ag ae2z|
gedB BEG/A/B|A z a/a/a bgeB|gedG GEge|dBAE GAB/c/d:|

